X: 1
T: Out On The Ocean
R: Jig
M: 6/8
L: 1/8
K: Gmaj
|: FE | D2B BAG | BdB A2B | GED G2A | B2B AGE |
D2B BAG | BdB A2B | GED G2A | BGF G :|
Bd | e2e edB | ege edB | d2d def | gfe dBA |
G2A B2d | ege dBA | GED G2A | BGF G :|
